svg/fluentui-system-icons/ic_fluent_add_square_20_regular.svg

<svg width="20" height="20" viewBox="0 0 20 20" fill="none" xmlns="http://www.w3.org/2000/svg">
<path d="M3 5C3 3.89543 3.89543 3 5 3H15C16.1046 3 17 3.89543 17 5V15C17 16.1046 16.1046 17 15 17H5C3.89543 17 3 16.1046 3 15V5ZM5 4C4.44772 4 4 4.44772 4 5V15C4 15.5523 4.44772 16 5 16H15C15.5523 16 16 15.5523 16 15V5C16 4.44772 15.5523 4 15 4H5ZM10.0001 6.00009C10.2762 6.00009 10.5001 6.22395 10.5001 6.50009V9.50009H13.5001C13.7762 9.50009 14.0001 9.72395 14.0001 10.0001C14.0001 10.2762 13.7762 10.5001 13.5001 10.5001H10.5001V13.5001C10.5001 13.7762 10.2762 14.0001 10.0001 14.0001C9.72392 14.0001 9.50006 13.7762 9.50006 13.5001V10.5001H6.50006C6.22392 10.5001 6.00006 10.2762 6.00006 10.0001C6.00006 9.72395 6.22392 9.50009 6.50006 9.50009H9.50006V6.50009C9.50006 6.22395 9.72392 6.00009 10.0001 6.00009Z" fill="#212121"/>
</svg>

<svg xmlns="http://www.w3.org/2000/svg" width="20" height="20"><path d="M3 5a2 2 0 0 1 2-2h10a2 2 0 0 1 2 2v10a2 2 0 0 1-2 2H5a2 2 0 0 1-2-2V5Zm2-1a1 1 0 0 0-1 1v10a1 1 0 0 0 1 1h10a1 1 0 0 0 1-1V5a1 1 0 0 0-1-1H5Zm5 2a.5.5 0 0 1 .5.5v3h3a.5.5 0 0 1 0 1h-3v3a.5.5 0 0 1-1 0v-3h-3a.5.5 0 0 1 0-1h3v-3A.5.5 0 0 1 10 6Z"/></svg>
